X: 8052
T: Old Rosin the Beau
R: jig
B: RSCDS 8-5
N: Alternative tune for The River Cree
Z: John Chambers <jc:trillian.mit.edu>
M: 6/8
L: 1/8
%--------------------
K: A
E \
| "A"A>GA cBA | e3 "D"f3 | "A"e>cA     ABc | "D"F3 "E7"F2E \
| "A"A>GA cBA | e3 "D"f3 | "A"e>cA "E7"BAG | "A"A3     A2 :|
|: c/d/ \
| "A"ece  efg | "D"a2f  a2f | "A"e>cA "F#m"ABc | "Bm"F3 "E7"F2E \
| "A"A>GA cBA |    e3 "D"f3 | "A"e>cA  "E7"BAG |  "A"A3     A2 :|
%%center Book08/08051-Old_Rosin_the_Beau-1.abc

%%sep 1 1 500
%%sep 1 1 500

